X: 50
T:Penny on the H2O
% Nottingham Music Database
S:Kevin Briggs
M:4/4
L:1/8
R:Hornpipe
K:D
P:A
A2|"D"d2d2 d2d2|"A7"cdec "D"d3e|"D"f2f2 "Bm"f2f2|"A7"efge "D7"f4|
"G"gabg "A7"e2e2|"D"fgaf "Bm"d4|"Em"efge "A7"cABc|"D"defg "D7/c"a4|
"G/b"gabg "A7/c+"e2e2|"D"fgaf "Bm"d4|"Em"efge "A7"cABc|"D"d2f2 d2||<end>
<start>
